X: 14732
T: Gan Ainm
R: polka
M: 2/4
K: Dmajor
A/|:z/ f/ z/ G/ z/ e/ z/|F/ z/ d2 F|AG GF/G/|BA A/^G/A|
A/ z/ f/ z/ G/ z/ e/ z/|F/ z/ d2 F|AG GF/G/|Fd d z:|
|:d>f ad'|b>a g/f/e/d/|cb cb|a2 f2|
d>f ad'|b>a g/f/e/d/|ca ca|df d z:|
K:G
|:dB/d/ gd/g/|bb b/a/g|gf d/c/d|ag g/f/g|
dB/d/ gd/g/|bb b/a/g|df/a/ bf|gg g z:|
|:c/B/ A2 e|ed d/c/B|dc c/B/c|cB B/^A/B|
c/B/ A2 e|ed d/c/B|dc c/B/A|GB G z:|

